packages/kronos-fna-icons/src/pie-chart.svg

<?xml version="1.0" encoding="UTF-8"?>
<svg width="19px" height="20px" viewBox="0 0 19 20" version="1.1" xmlns="http://www.w3.org/2000/svg" xmlns:xlink="http://www.w3.org/1999/xlink">
    <!-- Generator: Sketch 50.2 (55047) - http://www.bohemiancoding.com/sketch -->
    <title>pie-chart</title>
    <desc>Created with Sketch.</desc>
    <defs></defs>
    <g id="pie-chart" stroke="none" stroke-width="1" fill="none" fill-rule="evenodd">
        <path d="M8.73765182,10.7029391 C8.73765182,10.7029391 8.76753036,0.719821963 8.74493927,0.719821963 C3.80477733,0.719821963 0,5.25439337 0,10.5517612 C0,15.849129 4.07878543,20 9.10931174,20 C14.1391093,20 18.2186235,16.0409792 18.2186235,10.7436114 C18.2186235,10.6991021 8.73765182,10.7029391 8.73765182,10.7029391 L8.73765182,10.7029391 Z M18.9473684,9.92863172 C18.9473684,4.63049651 14.4590283,5.41788836e-14 9.42850202,5.41788836e-14 C9.49846154,5.41788836e-14 9.42850202,9.92863172 9.42850202,9.92863172 C9.42850202,9.92863172 18.9473684,9.95779296 18.9473684,9.92863172 L18.9473684,9.92863172 Z" id="Shape" fill="#000000"></path>
    </g>
</svg>

<svg version="1.1" xmlns="http://www.w3.org/2000/svg" width="19" height="20" viewBox="0 0 19 20">
<title>pie-chart</title>
<path d="M8.738 10.703c0 0 0.030-9.983 0.007-9.983-4.94 0-8.745 4.535-8.745 9.832s4.079 9.448 9.109 9.448c5.030 0 9.109-3.959 9.109-9.256 0-0.045-9.481-0.041-9.481-0.041v0zM18.947 9.929c0-5.298-4.488-9.929-9.519-9.929 0.070 0 0 9.929 0 9.929s9.519 0.029 9.519 0v0z"></path>
</svg>
